topics/special-relativity/Latex/images/svg/circular_waves_doppler_effect.svg

<?xml version="1.0" encoding="UTF-8"?>
<svg xmlns="http://www.w3.org/2000/svg" xmlns:xlink="http://www.w3.org/1999/xlink" width="234.854pt" height="227.17pt" viewBox="0 0 234.854 227.17" version="1.1">
<defs>
<clipPath id="clip1">
  <path d="M 0 0 L 233 0 L 233 227.171875 L 0 227.171875 Z M 0 0 "/>
</clipPath>
<clipPath id="clip2">
  <path d="M 212 94 L 234.855469 94 L 234.855469 133 L 212 133 Z M 212 94 "/>
</clipPath>
</defs>
<g id="surface1">
<path style=" stroke:none;fill-rule:nonzero;fill:rgb(100%,89.411926%,78.431702%);fill-opacity:1;" d="M 0 227.171875 L 234.855469 227.171875 L 234.855469 0 L 0 0 Z M 0 227.171875 "/>
<g clip-path="url(#clip1)" clip-rule="nonzero">
<path style="fill:none;stroke-width:0.3985;stroke-linecap:butt;stroke-linejoin:miter;stroke:rgb(100%,0%,0%);stroke-opacity:1;stroke-miterlimit:10;" d="M 113.387656 -0.0009375 C 113.387656 62.624062 62.622031 113.385781 0.0009375 113.385781 C -62.624062 113.385781 -113.385781 62.624062 -113.385781 -0.0009375 C -113.385781 -62.622031 -62.624062 -113.387656 0.0009375 -113.387656 C 62.622031 -113.387656 113.387656 -62.622031 113.387656 -0.0009375 Z M 113.387656 -0.0009375 " transform="matrix(1,0,0,-1,113.585,113.585)"/>
</g>
<path style="fill-rule:nonzero;fill:rgb(100%,79.998779%,79.998779%);fill-opacity:1;stroke-width:0.3985;stroke-linecap:butt;stroke-linejoin:miter;stroke:rgb(0%,0%,0%);stroke-opacity:1;stroke-dasharray:0.49814,0.99628;stroke-miterlimit:10;" d="M 2.989219 -0.0009375 C 2.989219 1.651406 1.649375 2.987344 0.0009375 2.987344 C -1.651406 2.987344 -2.987344 1.651406 -2.987344 -0.0009375 C -2.987344 -1.649375 -1.651406 -2.989219 0.0009375 -2.989219 C 1.649375 -2.989219 2.989219 -1.649375 2.989219 -0.0009375 Z M 2.989219 -0.0009375 " transform="matrix(1,0,0,-1,113.585,113.585)"/>
<path style="fill:none;stroke-width:0.3985;stroke-linecap:butt;stroke-linejoin:miter;stroke:rgb(100%,0%,0%);stroke-opacity:1;stroke-miterlimit:10;" d="M 110.551719 -0.0009375 C 110.551719 46.967812 72.4775 85.042031 25.512656 85.042031 C -21.456094 85.042031 -59.530312 46.967812 -59.530312 -0.0009375 C -59.530312 -46.965781 -21.456094 -85.04 25.512656 -85.04 C 72.4775 -85.04 110.551719 -46.965781 110.551719 -0.0009375 Z M 110.551719 -0.0009375 " transform="matrix(1,0,0,-1,113.585,113.585)"/>
<path style="fill-rule:nonzero;fill:rgb(100%,79.998779%,79.998779%);fill-opacity:1;stroke-width:0.3985;stroke-linecap:butt;stroke-linejoin:miter;stroke:rgb(0%,0%,0%);stroke-opacity:1;stroke-dasharray:0.49814,0.99628;stroke-miterlimit:10;" d="M 28.500938 -0.0009375 C 28.500938 1.651406 27.161094 2.987344 25.512656 2.987344 C 23.860313 2.987344 22.524375 1.651406 22.524375 -0.0009375 C 22.524375 -1.649375 23.860313 -2.989219 25.512656 -2.989219 C 27.161094 -2.989219 28.500938 -1.649375 28.500938 -0.0009375 Z M 28.500938 -0.0009375 " transform="matrix(1,0,0,-1,113.585,113.585)"/>
<path style="fill:none;stroke-width:0.3985;stroke-linecap:butt;stroke-linejoin:miter;stroke:rgb(100%,0%,0%);stroke-opacity:1;stroke-miterlimit:10;" d="M 107.715781 -0.0009375 C 107.715781 31.311562 82.336875 56.694375 51.024375 56.694375 C 19.711875 56.694375 -5.670937 31.311562 -5.670937 -0.0009375 C -5.670937 -31.309531 19.711875 -56.692344 51.024375 -56.692344 C 82.336875 -56.692344 107.715781 -31.309531 107.715781 -0.0009375 Z M 107.715781 -0.0009375 " transform="matrix(1,0,0,-1,113.585,113.585)"/>
<path style="fill-rule:nonzero;fill:rgb(100%,79.998779%,79.998779%);fill-opacity:1;stroke-width:0.3985;stroke-linecap:butt;stroke-linejoin:miter;stroke:rgb(0%,0%,0%);stroke-opacity:1;stroke-dasharray:0.49814,0.99628;stroke-miterlimit:10;" d="M 54.012656 -0.0009375 C 54.012656 1.651406 52.672813 2.987344 51.024375 2.987344 C 49.372031 2.987344 48.036094 1.651406 48.036094 -0.0009375 C 48.036094 -1.649375 49.372031 -2.989219 51.024375 -2.989219 C 52.672813 -2.989219 54.012656 -1.649375 54.012656 -0.0009375 Z M 54.012656 -0.0009375 " transform="matrix(1,0,0,-1,113.585,113.585)"/>
<path style="fill:none;stroke-width:0.3985;stroke-linecap:butt;stroke-linejoin:miter;stroke:rgb(100%,0%,0%);stroke-opacity:1;stroke-miterlimit:10;" d="M 104.88375 -0.0009375 C 104.88375 15.655312 92.192344 28.346719 76.536094 28.346719 C 60.879844 28.346719 48.188438 15.655312 48.188438 -0.0009375 C 48.188438 -15.657188 60.879844 -28.348594 76.536094 -28.348594 C 92.192344 -28.348594 104.88375 -15.657188 104.88375 -0.0009375 Z M 104.88375 -0.0009375 " transform="matrix(1,0,0,-1,113.585,113.585)"/>
<path style="fill-rule:nonzero;fill:rgb(100%,79.998779%,79.998779%);fill-opacity:1;stroke-width:0.3985;stroke-linecap:butt;stroke-linejoin:miter;stroke:rgb(0%,0%,0%);stroke-opacity:1;stroke-dasharray:0.49814,0.99628;stroke-miterlimit:10;" d="M 79.524375 -0.0009375 C 79.524375 1.651406 78.188438 2.987344 76.536094 2.987344 C 74.88375 2.987344 73.547813 1.651406 73.547813 -0.0009375 C 73.547813 -1.649375 74.88375 -2.989219 76.536094 -2.989219 C 78.188438 -2.989219 79.524375 -1.649375 79.524375 -0.0009375 Z M 79.524375 -0.0009375 " transform="matrix(1,0,0,-1,113.585,113.585)"/>
<path style="fill:none;stroke-width:1.59404;stroke-linecap:butt;stroke-linejoin:miter;stroke:rgb(0%,0%,0%);stroke-opacity:1;stroke-miterlimit:10;" d="M 102.047813 -0.0009375 L 115.372031 -0.0009375 " transform="matrix(1,0,0,-1,113.585,113.585)"/>
<path style=" stroke:none;fill-rule:nonzero;fill:rgb(0%,0%,0%);fill-opacity:1;" d="M 232.789063 113.585938 C 232.320313 113.375 230.25 112.171875 228.957031 110.867188 L 228.957031 116.304688 C 230.25 114.996094 232.320313 113.796875 232.789063 113.585938 Z M 232.789063 113.585938 "/>
<g clip-path="url(#clip2)" clip-rule="nonzero">
<path style="fill:none;stroke-width:1.13383;stroke-linecap:butt;stroke-linejoin:miter;stroke:rgb(0%,0%,0%);stroke-opacity:1;stroke-miterlimit:10;" d="M 3.833462 -0.0009375 C 3.364712 0.21 1.2944 1.413125 0.00143125 2.717812 L 0.00143125 -2.719688 C 1.2944 -1.411094 3.364712 -0.211875 3.833462 -0.0009375 Z M 3.833462 -0.0009375 " transform="matrix(1,0,0,-1,228.9556,113.585)"/>
</g>
<path style="fill-rule:nonzero;fill:rgb(100%,0%,0%);fill-opacity:1;stroke-width:0.3985;stroke-linecap:butt;stroke-linejoin:miter;stroke:rgb(0%,0%,0%);stroke-opacity:1;stroke-miterlimit:10;" d="M 105.036094 -0.0009375 C 105.036094 1.651406 103.700156 2.987344 102.047813 2.987344 C 100.395469 2.987344 99.059531 1.651406 99.059531 -0.0009375 C 99.059531 -1.649375 100.395469 -2.989219 102.047813 -2.989219 C 103.700156 -2.989219 105.036094 -1.649375 105.036094 -0.0009375 Z M 105.036094 -0.0009375 " transform="matrix(1,0,0,-1,113.585,113.585)"/>
</g>
</svg>

<svg xmlns="http://www.w3.org/2000/svg" width="313.14" height="302.89" viewBox="0 0 234.85 227.17"><defs><clipPath id="a"><path d="M0 0h233v227.17H0Zm0 0"/></clipPath><clipPath id="b"><path d="M212 94h22.86v39H212Zm0 0"/></clipPath></defs><path d="M0 227.17h234.86V0H0Zm0 0" style="stroke:none;fill-rule:nonzero;fill:#ffe4c8;fill-opacity:1"/><g clip-path="url(#a)"><path d="M113.39 0c0 62.62-50.77 113.39-113.39 113.39S-113.39 62.62-113.39-.01c0-62.61 50.77-113.38 113.4-113.38 62.61 0 113.38 50.77 113.38 113.39Zm0 0" style="fill:none;stroke-width:.3985;stroke-linecap:butt;stroke-linejoin:miter;stroke:red;stroke-opacity:1;stroke-miterlimit:10" transform="matrix(1 0 0 -1 113.58 113.58)"/></g><path d="M2.99 0A2.99 2.99 0 1 1-3 0 2.99 2.99 0 0 1 3 0Zm0 0" style="fill-rule:nonzero;fill:#fcc;fill-opacity:1;stroke-width:.3985;stroke-linecap:butt;stroke-linejoin:miter;stroke:#000;stroke-opacity:1;stroke-dasharray:.49814,.99628;stroke-miterlimit:10" transform="matrix(1 0 0 -1 113.58 113.58)"/><path d="M110.55 0A85.04 85.04 0 1 1-59.53 0a85.04 85.04 0 0 1 170.08 0Zm0 0" style="fill:none;stroke-width:.3985;stroke-linecap:butt;stroke-linejoin:miter;stroke:red;stroke-opacity:1;stroke-miterlimit:10" transform="matrix(1 0 0 -1 113.58 113.58)"/><path d="M28.5 0a2.99 2.99 0 1 1-5.98 0 2.99 2.99 0 0 1 5.98 0Zm0 0" style="fill-rule:nonzero;fill:#fcc;fill-opacity:1;stroke-width:.3985;stroke-linecap:butt;stroke-linejoin:miter;stroke:#000;stroke-opacity:1;stroke-dasharray:.49814,.99628;stroke-miterlimit:10" transform="matrix(1 0 0 -1 113.58 113.58)"/><path d="M107.72 0A56.7 56.7 0 1 1-5.67 0a56.7 56.7 0 0 1 113.39 0Zm0 0" style="fill:none;stroke-width:.3985;stroke-linecap:butt;stroke-linejoin:miter;stroke:red;stroke-opacity:1;stroke-miterlimit:10" transform="matrix(1 0 0 -1 113.58 113.58)"/><path d="M54.01 0a2.99 2.99 0 1 1-5.97 0A2.99 2.99 0 0 1 54 0Zm0 0" style="fill-rule:nonzero;fill:#fcc;fill-opacity:1;stroke-width:.3985;stroke-linecap:butt;stroke-linejoin:miter;stroke:#000;stroke-opacity:1;stroke-dasharray:.49814,.99628;stroke-miterlimit:10" transform="matrix(1 0 0 -1 113.58 113.58)"/><path d="M104.88 0a28.35 28.35 0 1 1-56.7 0 28.35 28.35 0 0 1 56.7 0Zm0 0" style="fill:none;stroke-width:.3985;stroke-linecap:butt;stroke-linejoin:miter;stroke:red;stroke-opacity:1;stroke-miterlimit:10" transform="matrix(1 0 0 -1 113.58 113.58)"/><path d="M79.52 0a2.99 2.99 0 1 1-5.97 0 2.99 2.99 0 0 1 5.97 0Zm0 0" style="fill-rule:nonzero;fill:#fcc;fill-opacity:1;stroke-width:.3985;stroke-linecap:butt;stroke-linejoin:miter;stroke:#000;stroke-opacity:1;stroke-dasharray:.49814,.99628;stroke-miterlimit:10" transform="matrix(1 0 0 -1 113.58 113.58)"/><path d="M102.05 0h13.32" style="fill:none;stroke-width:1.59404;stroke-linecap:butt;stroke-linejoin:miter;stroke:#000;stroke-opacity:1;stroke-miterlimit:10" transform="matrix(1 0 0 -1 113.58 113.58)"/><path d="M232.79 113.59a17 17 0 0 1-3.83-2.72v5.43c1.29-1.3 3.36-2.5 3.83-2.71m0 0" style="stroke:none;fill-rule:nonzero;fill:#000;fill-opacity:1"/><g clip-path="url(#b)"><path d="M3.83 0C3.36.2 1.3 1.4 0 2.72v-5.44C1.3-1.42 3.36-.22 3.83 0Zm0 0" style="fill:none;stroke-width:1.13383;stroke-linecap:butt;stroke-linejoin:miter;stroke:#000;stroke-opacity:1;stroke-miterlimit:10" transform="matrix(1 0 0 -1 228.96 113.58)"/></g><path d="M105.04 0a2.99 2.99 0 1 1-5.98 0 2.99 2.99 0 0 1 5.98 0Zm0 0" style="fill-rule:nonzero;fill:red;fill-opacity:1;stroke-width:.3985;stroke-linecap:butt;stroke-linejoin:miter;stroke:#000;stroke-opacity:1;stroke-miterlimit:10" transform="matrix(1 0 0 -1 113.58 113.58)"/></svg>
